X: 41510
T: Uist Dance
R: reel
M: 4/4
K: Dmajor
D2d2 B>d A>F|D2d>F E>F (3GFE|D2d2 B>d A>F|G>A F>A E>F (3GFE:|
(3D/D/D/A (3F/F/F/A (3D/D/D/A (3F/F/F/A|(3D/D/D/A (3F/F/F/A E>F (3GFE|(3D/D/D/A (3F/F/F/A (3D/D/D/A (3F/F/F/A|(3G/G/G/A (3F/F/F/A E>F (3GFE|
(3D/D/D/A (3F/F/F/A (3D/D/D/A (3F/F/F/A|(3D/D/D/A (3F/F/F/A E>F (3GFE|D2d2 B>d A>F|G>A F>A E>F (3GFE||

